X:1
T:Venite Exultemus
T:Orlando Gibbons (1583-1625)
T:Venite Exultemus
T:(from Short Service)
T:© 2019 by Paul R Marchesano. May be freely copied for nonprofit use.
T:© 2019 by Paul R Marchesano. May be freely copied for nonprofit use.
T:© 2019 by Paul R Marchesano. May be freely copied for nonprofit use.
T:© 2019 by Paul R Marchesano. May be freely copied for nonprofit use.
T:© 2019 by Paul R Marchesano. May be freely copied for nonprofit use.
T:© 2019 by Paul R Marchesano. May be freely copied for nonprofit use.
T:© 2019 by Paul R Marchesano. May be freely copied for nonprofit use.
T:© 2019 by Paul R Marchesano. May be freely copied for nonprofit use.
T:© 2019 by Paul R Marchesano. May be freely copied for nonprofit use.
T:© 2019 by Paul R Marchesano. May be freely copied for nonprofit use.
T:© 2019 by Paul R Marchesano. May be freely copied for nonprofit use.
T:© 2019 by Paul R Marchesano. May be freely copied for nonprofit use.
T:© 2019 by Paul R Marchesano. May be freely copied for nonprofit use.
C:Orlando Gibbons
C:(1583-1625)
Z:© 2019 by Paul R Marchesano. May be freely copied for nonprofit use.
%%score [ 1 2 3 4 ]
L:1/8
Q:1/4=110
M:2/2
K:Ab
V:1 treble nm="Soprano" snm="S"
V:2 treble nm="Alto" snm="A"
V:3 treble-8 nm="Tenor" snm="T"
V:4 bass nm="Bass" snm="B"
V:1
"^Full" A6 A2 | B2 c2 d2 e2 | B2 B2 c2"^Decani" cc | c>ccc d2 cc | BB e4 c2 | B4 B2 BB | %6
w: O come,|let us sing un-|to the Lord, let us|heart- i- ly re- joice in the|strength of our sal-|va- tion. Let us|
 B2 c2 A2 A2 | Bc d4 cc | e3 =d e2 B2- | B2 c3 B c2 | dd f4 e2 | d4 c2"^Cantoris" cc | %12
w: come be- fore his|pre- * * sence with|thanks- giv- ing and|_ shew our- selves|glad in him _|with Psalms. For the|
 c2 cc d2 c2- | c2 cc c4 | d2 c2 c2 B2 | c4 z4"^Dec." | z2 cc d2 A2 | AB cd e2 B2 | %18
w: Lord is a great God|_ and a great|King a- bove all|gods.|‿n his hands are|all the cor- ners of the|
 B4"^Can." BB e2- | e2 cc f4 | z Bcd e4 | z2"^Dec." B2 e3 d | c2 A B/c/ d4 | B2 BB B4 | %24
w: earth; and the strength|_ of the hills|is his al- so.|The sea is|his, and he _ made|it and his hands|
 e2 B3 A A2- | A2 G2 A2"^Can." c2- | cc cc c2 c2 | c2 d2 c2 z G | G6 A2 | G3 F G2 B2 | %30
w: pre- par- ed the|_ dry land. O|_ come, let us wor- ship,|and fall down and|kneel be-|fore the Lord our|
 G2 G2 z"^Dec." F A2- | A2 cA e2 d2 | c4 z2 B2 | d2 AA B2 c2 | B2 A2 e2 c2 | z2 BB B4 | B2 B2 B4 | %37
w: Mak- er. For he|_ is the Lord our|God and|we are the peo- ple|of his pas- ture,|and the sheep|of his hand.|
 z4"^Can." B2 e2- | ee cc d2 B2 | c4 AA B2- | B2 c2 d4 | z8 | z2"^Dec." e2 e3 e | f2 d2 edcB | %44
w: To- day|_ if ye will hear his|voice, hard- en not|_ your hearts,||as in the|pro- vo- ca- * * *|
 A6 GG | A3 F B4 | GE e4 c2 | AA d4 c2 | d4"^Can." dd f2- | f2 e2 e2 =d2 | e2 B3 c d2- | %51
w: tion, and as|in the day|of temp- ta- tion|in the wild- er-|ness; When your fa-|* thers tempt- ed|me, prov- ed me,|
 dc AB cd e2- | e2"^Dec." B3 B B2 | B4 z2 BB | e2 B2 z2 BB | d6 A2 | AA G2 F2 z2 | %57
w: _ and saw _ my _ works.|_ For- ty years|long was *|griev- ed with this|ge- ne-|ra- tion, and said,|
 z2"^Can." F2 FF B2- | BB GE e4- | e2 B2 c4 | B4 BB d2- | d2 c2 B3 B | =A2"^Dec." cc c2 F2 | %63
w: ‿t is a peo-|* ple that do err|_ in their|hearts, for they have|_ not known my|ways. Un- to whom *|
 c2 d2 c2 EF | G4 z2 cc | c2 d2 cc f2 | f2 =e2 f4 || z2"^Full" c3 c c2 | c2 c2 d2 c2- | %69
w: sware, * sware, in my|wrath, that they|should not en- ter in-|to my rest.|Glo- ry be|to the Fa- ther,|
 c2 e2 e2 c2 | B4 c2 d2- | d2 c2 B2 B2 | c4 z2 cc | c2 B2 ce =d2 | e2 c2 d3 B | GA F2 G2 A2- | %76
w: _ and to the|Son and to|_ the Ho- ly|Ghost; as it|was in the be- gin-|ning, is now, and|e- ver shall be, world|
 AF B4 E2 | e4 c4 |] %78
w: _ with- out end.|A- men.|
V:2
 E6 F2 | G2 A2 BA A2- | A2 G2 A2 AA | A>AAA A2 EE | G2 G2 B2 AG | F4 G2 GG | G2 A2 FG A2- | %7
w: O come,|let us sing un- to|_ the Lord, let us|heart- i- ly re- joice in the|strength of our sal- *|va- tion. Let us|come be- fore his pre-|
 A2 G2 A4 | E2 F2 G2 z2 | G2 A3 G A2 | F4 z F A2- | A2 G2 A2 EE | A2 EE F2 E2- | E2 AA A4 | %14
w: * sence with|thanks- giv- ing|and shew our- selves|glad in him|_ with Psalms. For the|Lord is a great God|_ and a great|
 FF A4 GF | G4 z2 AA | A3 G F2 F2 | F2 E2 G4 | F4 G4 | EE A4 FF | B3 F B2 A2 | G4 z2 E2 | %22
w: King a- bove all _|gods. ‿n his|hands are all the|cor- ners of|the earth;|and the strength of the|hills is his al-|so. The|
 A3 G F2 FF | G2 E2 z2 GG | G3 F E2 DC | B,4 C4 | z2 A3 A AA | AA GF =E4 | z =E E4 E2 | %29
w: sea is his, and he|made it and his|hands pre- par- ed the|dry land.|O come, let us|wor- ship, and fall down|and kneel be-|
 =E2 F2 E2 F2- | F2 =E2 F2 z F | !courtesy!_E4 GG F2- | FE C2 D4 | D2 F4 EF | G2 A2 B2 E2 | %35
w: fore the Lord our|_ Mak- er. For|he is the Lord|_ _ our God|and we are the|peo- ple of his|
 A2 G2 z2 GG | F2 E4 =D2 | E4 z2 E2 | A3 A F2 G2 | A2 E2 F2 D2 | _G2 E2 F4 | F3 E D2 D2 | %42
w: pas- ture, and the|sheep of his|hand. To-|day if ye will|hear his voice, his|voice, his voice,|hard- en not your|
 C4 E2 A2- | A2 F2 B2 E2 | F4 B,4 | EE F3 F G2 | E4 E2 A2- | A2 F2 EE AA | F4 FF A2- | %49
w: hearts, as in|_ the pro- vo-|ca- tion,|and as in the day|of temp- ta-|* tion in the wild- er-|ness; When your fa-|
 A2 G2 F2 F2 | E4 D3 E | F3 E E3 F | G4 z2 E2- | EE =D2 E4 | z2 GG A2 G2 | z2 FF F3 F | %56
w: * thers tempt- ed|me, prov- ed|me, and saw my|works. For-|* ty years long|was * griev- ed|with this ge- ne-|
 F2 E2 C2 D2 | C4 z2 =D2 | =DD E3 E E2 | C2 E3 A, A2 | G4 z2 FF | F2 F2 F3 F | F4 z2 FF | %63
w: ra- * tion, and|said, ‿t|is a peo- ple that|do err in their|hearts, for they|have not known my|ways. Un- to|
 F2 F2 A2 GF | =E4 z2 AA | A2 F2 A2 AA | G2 G2 F4 || z2 E3 E E2 | E2 A2 F2 A2- | A2 G2 B2 A2 | %70
w: whom * sware, in my|wrath, that they|should not en- ter in-|to my rest.|Glo- ry be|to the Fa- ther,|_ and to the|
 G4 A2 B2- | BA A4 G2 | A2 AA A2 E2 | A2 G2 AA B2 | G2 A2 F2 F2 | EE =D2 E4 | F3 F G2 A2- | %77
w: Son and to|_ the Ho- ly|Ghost; as it was in|the be- gin- ning, and|_ is now, and|e- ver shall be,|world with- out end.|
 A2 G2 A4 |] %78
w: _ A- men.|
V:3
 c6 A2 | e2 e2 df e2- | e2 e2 e2 ee | e>eee f2 ee | e2 e2 B2 e2 | e2 =d2 e2 ee | e2 e2 f3 e | %7
w: O come,|let us sing un- to|_ the Lord, let us|heart- i- ly re- joice in the|strength of our sal-|va- * tion. Let us|come be- fore his|
 d2 B2 e2 ee | A4 B2 z2 | e2 e3 e e2 | d4 z d e2 | f2 d2 e2 cc | c2 cA A2 A2- | A2 ee e4 | %14
w: pre- * sence with thanks-|giv- ing|and shew our- selves|glad in him|_ with Psalms. For the|Lord is a great God|_ and a great|
 d2 ec f2 f2 | =e4 z4 | z2 AA AA dd | d2 c2 B2 e2- | e2 =d2 e2 BB | c4 AA d2- | d2 c2 B2 c2 | %21
w: King a- * bove all|gods.|‿n his hands are all the|cor- * ners of|_ the earth; and the|strength of the hills|_ is his al-|
 B2 G2 c3 B | A2 F2 B2 BA | G2 G2 z2 BB | B3 B c2 de | e4 e4 | z2 c3 c cc | cc BA G4 | z c c4 c2 | %29
w: so. The sea is|his, is his, and he|made it and his|_ _ _ _ _||O come, let us|wor- ship, and fall down|and kneel be-|
 c2 B2 c2 d2 | c4 c2 z A | c4 Bc dB | f4 z2 z B | B2 FF d2 cA | B2 f2 e4 | =d2 e2 z2 BB | %36
w: fore the Lord our|Mak- er. For|he is the Lord our|God and|we are the peo- * *|ple of his|pas- ture, and the|
 B2 G2 F4 | G4 z4 | z4 B2 e2- | ee cc d2 B2 | e4 d3 c | BA A4 G2 | A4 c2 c2- | c2 d2 BB e2- | %44
w: sheep of his|hand.|To- day|_ if ye will hear his|voice, hard- en|not _ your _|hearts, as in|_ the pro- vo- ca-|
 e2 =d2 e2 BB | c2 A2 d2 B2 | e4 c2 A2 | d2 dd e2 e2 | d4 AA d2- | d2 B2 B2 B2 | B4 B3 A | %51
w: * * tion, and as|in the day of|temp- ta- *|tion in the wild- er-|ness; When your fa-|* thers tempt- ed|me, prov- ed|
 F3 G A2 A2 | G4 z2 G2- | GG F2 G4 | z2 ee c2 e2 | BB d4 d2 | d2 B2 =A2 B2 | =A4 z2 B2 | %58
w: me, and saw my|works. For-|* ty years long|was * griev- ed|with this ge- ne-|ra- * tion, and|_ ‿t|
 BB B3 B cc | e3 d c4 | e4 z2 dd | B2 c2 d3 d | c4 z2 cc | c2 B2 A2 BB | c4 z2 cc | f3 B f2 ff | %66
w: is a peo- ple that _|err in their|hearts, for they|have not known my|ways. Un- to|whom * sware, in my|wrath, that they|should not en- ter in-|
 c2 c2 c4 || z2 c3 c c2 | c2 e2 d2 e2 | A2 B4 cd | e4 c2 B2- | B2 c2 e2 e2 | e4 z2 cc | %73
w: to my rest.|Glo- ry be|to the Fa- ther,|and to the _|Son and to|_ the Ho- ly|Ghost; as it|
 c2 e2 ee f2 | e2 e2 d2 d2 | BA B2 B2 c2 | A2 d4 c2 | B4 A4 |] %78
w: was in the be- gin-|ning, is now, and|e- ver shall be, world|with- out end.|A- men.|
V:4
 A,6 F,2 | E,2 A,2 D,2 C,2 | E,2 E,2 A,,2 A,A, | A,>A,A,A, D,2 A,A, | E,2 E,2 G,2 A,2 | %5
w: O come,|let us sing un-|to the Lord, let us|heart- i- ly re- joice in the|strength of our sal-|
 B,4 E,2 E,E, | E,2 C,2 D,3 C, | B,,4 A,,2 A,2 | G,2 F,2 E,2 z2 | E,2 A,3 E, A,2 | D,D, D4 C2 | %11
w: va- tion. Let us|come be- fore his|pre- sence with|thanks- giv- ing|and shew our- selves|glad in him _|
 B,4 A,2 A,A, | A,2 A,A, D,2 A,2- | A,2 A,A, A,4 | B,2 C2 D2 D2 | C4 z2 F,F, | F,3 E, D,3 E, | %17
w: with Psalms. For the|Lord is a great God|_ and a great|King a- bove all|gods. ‿n his|hands are all the|
 F,2 A,2 E,F,G,A, | B,4 E,2 E,E, | A,4 F,F, B,2- | B,2 A,2 G,2 A,2 | E,4 z2 C,2 | %22
w: cor- ners of _ _ _|the earth; _ _|strength of the hills|_ is his al-|so. The|
 F,3 E, D,2 B,,B,, | E,2 E,2 z2 E,E, | E,3 D, C,2 B,,A,, | E,4 A,,4 | z2 A,,3 A,, A,,A,, | %27
w: sea is his, and he|made it and his|_ _ _ _ _||O come, let us|
 A,,A,, B,,B,, C,4 | z C, C,4 C,2 | C,2 D,2 C,2 B,,2 | C,4 F,2 z F, | A,4 G,F, B,2- | %32
w: wor- ship, and fall down|and kneel be-|fore the Lord our|Mak- er. For|he is the Lord|
 B,2 =A,2 B,4 | B,,2 D,4 A,,A,, | E,2 F,2 G,2 A,2 | F,2 E,2 z2 E,E, | =D,2 E,2 B,,4 | E,4 z4 | %38
w: _ our God|and we are the|peo- ple of his|pas- ture, and the|sheep of his|hand.|
 z4 z2 E,2 | A,3 A, F,2 _G,2 | E,2 A,2 D,4 | D,3 C, B,,2 B,,2 | A,,4 A,2 A,2- | A,2 B,2 G,2 A,2 | %44
w: To-|day if ye will|hear his voice,|hard- en not your|hearts, as in|_ the pro- vo-|
 F,4 E,4 | C,C, D,3 B,, E,2- | E,2 C,A,, A,4 | F,2 D,D, A,3 A, | D,4 D,D, D,2- | %49
w: ca- tion,|and as in the day|_ of temp- ta-|tion in the wild- er-|ness; When your fa-|
 D,2 E,2 B,,2 B,,2 | E,4 B,,3 C, | D,3 C, A,,B,, C,D, | E,4 z2 E,2- | E,E, B,,2 E,4 | %54
w: * thers tempt- ed|me, prov- ed|me, and saw _ my _|works. For-|* ty years long|
 z2 E,E, A,2 E,2 | z2 B,,B,, D,3 D, | D,2 E,2 F,2 B,,2 | F,4 z2 B,,2 | B,,B,, E,3 E, C,A,, | %59
w: was * griev- ed|with this ge- ne-|ra- * tion, and|_ ‿t|is a peo- ple that _|
 A,2 G,2 A,4 | E,4 z2 B,B, | B,2 =A,2 B,3 B, | F,4 z2 F,F, | F,2 B,,2 F,2 E,D, | C,4 z2 F,F, | %65
w: err in their|hearts, for they|have not known my|ways. Un- to|whom * sware, in my|wrath, that they|
 F,2 B,,2 F,G,A,B, | C2 C2 F,4 || z2 A,3 A, A,2 | A,2 A,2 B,2 A,2- | A,2 E,2 G,2 A,2 | %70
w: should not en- * ter in-|to my rest.|Glo- ry be|to the Fa- ther,|_ and to the|
 E,4 A,2 _G,2- | G,2 A,2 E,2 E,2 | A,,4 z2 A,A, | A,2 E,2 A,C B,2 | E,2 A,2 D,2 D,2 | %75
w: Son and to|_ the Ho- ly|Ghost; as it|was in the be- gin-|ning, is now, and|
 E,C, B,,2 E,2 C,2 | D,2 D,2 E,4- | E,2 E,2 A,,4 |] %78
w: e- ver shall be, world|with- out end.|_ A- men.|

